assets/landing/benefits/innovative.svg

<svg width="40" height="40" viewBox="0 0 40 40" fill="none" xmlns="http://www.w3.org/2000/svg">
<path d="M38.5222 35.7731L35.3334 32.5398V35.4509H4.22224V30.8398H6.44446V29.062H4.22224V21.6731H6.44446V19.8953H4.22224V12.7842H6.44446V11.0065H4.22224V4.79535L35.3334 35.6731V32.5398L24 21.2866L3.90002 1.32868C3.74461 1.17199 3.54605 1.06512 3.32966 1.02171C3.11328 0.978296 2.88887 1.00031 2.68504 1.08494C2.48121 1.16957 2.30721 1.31298 2.18521 1.49689C2.0632 1.6808 1.99874 1.89688 2.00002 2.11757V36.562C2.00002 36.8567 2.11708 37.1393 2.32546 37.3477C2.53383 37.5561 2.81644 37.6731 3.11113 37.6731H37.7334C37.954 37.6744 38.1701 37.6099 38.354 37.4879C38.5379 37.3659 38.6814 37.1919 38.766 36.9881C38.8506 36.7843 38.8726 36.5599 38.8292 36.3435C38.7858 36.1271 38.6789 35.9285 38.5222 35.7731Z" fill="#03E2B3"/>
<path d="M16.2222 33.3333H20.6667C21.256 33.3333 21.8213 33.0992 22.238 32.6825C22.6548 32.2657 22.8889 31.7005 22.8889 31.1111V9.66667L20.3333 4.96667C20.1357 4.62425 19.8503 4.34076 19.5065 4.14544C19.1627 3.95013 18.7731 3.85006 18.3778 3.85556C17.9735 3.85877 17.5777 3.97221 17.2332 4.18366C16.8886 4.39512 16.6082 4.69657 16.4222 5.05556L14 9.6889V31.1111C14 31.7005 14.2341 32.2657 14.6509 32.6825C15.0676 33.0992 15.6329 33.3333 16.2222 33.3333ZM16.2222 10.2222L18.3778 6.03334L20.6667 10.2333V26.6667H16.2222V10.2222ZM16.2222 28.4778H20.6667V31.1889H16.2222V28.4778Z" fill="#03E2B3"/>
<rect x="16.22" y="13" width="4.47" height="10" fill="#004368"/>
</svg>

<svg xmlns="http://www.w3.org/2000/svg" fill="#03E2B3" viewBox="0 0 40 40">
  <path stroke="none" d="m38.52 35.77-3.19-3.23v2.91H4.23v-4.61h2.21v-1.78H4.22v-7.39h2.22V19.9H4.22v-7.12h2.22v-1.77H4.22V4.8l31.11 30.87v-3.13L24 21.29 3.9 1.33a1.11 1.11 0 0 0-1.9.79v34.44a1.11 1.11 0 0 0 1.11 1.11h34.62a1.11 1.11 0 0 0 .8-1.9Z"/>
  <path stroke="none" d="M16.22 33.33h4.45a2.22 2.22 0 0 0 2.22-2.22V9.67l-2.56-4.7a2.22 2.22 0 0 0-3.1-.79c-.34.22-.62.52-.8.88L14 9.69V31.1a2.22 2.22 0 0 0 2.22 2.22Zm0-23.1 2.16-4.2 2.29 4.2v16.44h-4.45V10.22Zm0 18.25h4.45v2.7h-4.45v-2.7Z"/>
  <path stroke="none" d="M16.22 13h4.47v10h-4.47z"/>
</svg>
